src/_assets/sidebar/admin-icon.svg

<svg width="24" height="24" viewBox="0 0 24 24" fill="none" xmlns="http://www.w3.org/2000/svg">
<path d="M6.62011 16.9627C6.18207 16.9627 5.82631 16.6848 5.82631 16.3415V11.1003C5.82631 10.7577 6.18207 10.4791 6.62011 10.4791C7.05815 10.4791 7.41315 10.7577 7.41315 11.1003V16.3415C7.41315 16.687 7.05815 16.9627 6.62011 16.9627Z" fill="#485F7D"/>
<path d="M19.3918 9.00085H4.6196C3.72676 9.00085 3 8.32235 3 7.48802C3.00334 7.20711 3.0879 6.93268 3.24417 6.69566C3.40044 6.45863 3.62219 6.26842 3.88446 6.14646L11.0752 2.679H11.0851C11.3987 2.55088 11.7374 2.49023 12.0778 2.50128C12.4181 2.51232 12.7519 2.59479 13.0559 2.74295L20.1224 6.1494C20.3832 6.27173 20.6035 6.4618 20.7585 6.69826C20.9135 6.93473 20.9972 7.20822 21 7.48802C21.0023 8.32235 20.2801 9.00085 19.3918 9.00085ZM11.3631 3.85516L4.42306 7.20427C4.36544 7.22909 4.31596 7.26865 4.27997 7.31867C4.24398 7.36869 4.22286 7.42725 4.21889 7.48802C4.21889 7.67326 4.39868 7.82469 4.6196 7.82469H19.3918C19.4899 7.82952 19.5859 7.7969 19.6592 7.73389C19.7325 7.67087 19.7771 7.58254 19.7834 7.48802C19.7806 7.42773 19.7606 7.36936 19.7256 7.31931C19.6907 7.26925 19.6422 7.22945 19.5853 7.20427L12.5104 3.79341C12.3529 3.71762 12.1794 3.67817 12.0034 3.67817C11.8275 3.67817 11.6539 3.71762 11.4964 3.79341L11.3631 3.85516Z" fill="#485F7D"/>
<path d="M20.293 20.5H3.99035C3.63306 20.5 3.34281 20.1104 3.34281 19.6296C3.34281 19.1489 3.63306 18.7593 3.99035 18.7593H20.293C20.6503 18.7593 20.9406 19.1489 20.9406 19.6296C20.9421 20.1104 20.6518 20.5 20.293 20.5Z" fill="#485F7D"/>
<path d="M12.0015 16.9627C11.5635 16.9627 11.2085 16.6848 11.2085 16.3415V11.1003C11.2085 10.7577 11.5635 10.4791 12.0015 10.4791C12.4396 10.4791 12.7946 10.7577 12.7946 11.1003V16.3415C12.7946 16.687 12.4396 16.9627 12.0015 16.9627Z" fill="#485F7D"/>
<path d="M17.3829 16.9627C16.9449 16.9627 16.5899 16.6848 16.5899 16.3415V11.1003C16.5899 10.7577 16.9449 10.4791 17.3829 10.4791C17.821 10.4791 18.176 10.7577 18.176 11.1003V16.3415C18.176 16.687 17.821 16.9627 17.3829 16.9627Z" fill="#485F7D"/>
</svg>

<svg xmlns="http://www.w3.org/2000/svg" width="24" height="24" fill="none"><path fill="#485F7D" d="M6.62 16.963c-.438 0-.794-.278-.794-.622v-5.24c0-.343.356-.622.794-.622s.793.279.793.621v5.242c0 .345-.355.62-.793.62M19.392 9H4.62C3.727 9 3 8.323 3 7.489a1.47 1.47 0 01.244-.792c.156-.237.378-.428.64-.55l7.191-3.467h.01a2.42 2.42 0 011.97.064l7.067 3.406c.261.123.482.313.637.55.154.236.238.51.241.789.002.834-.72 1.513-1.608 1.513m-8.029-5.145l-6.94 3.35a.34.34 0 00-.143.114.33.33 0 00-.061.169c0 .185.18.337.4.337h14.773a.38.38 0 00.267-.091.36.36 0 00.124-.246.3.3 0 00-.057-.169.34.34 0 00-.14-.115l-7.076-3.41a1.17 1.17 0 00-1.014 0zm8.93 16.643H3.99c-.357 0-.647-.39-.647-.87 0-.481.29-.87.647-.87h16.303c.357 0 .648.389.648.87.001.48-.29.87-.648.87m-8.291-3.537c-.439 0-.793-.278-.793-.622v-5.24c0-.343.354-.622.793-.622.438 0 .793.279.793.621v5.242c0 .345-.355.62-.793.62m5.381.001c-.438 0-.793-.278-.793-.622v-5.24c0-.343.355-.622.793-.622s.793.279.793.621v5.242c0 .345-.355.62-.793.62"/></svg>
